public/assets/standards/sci/resource-guide-icon.svg

<svg xmlns="http://www.w3.org/2000/svg" width="48" height="48" fill="none" viewBox="0 0 48 48"><path fill="#006d68" d="M46.85 4.57C46.59 2.03 41.58 0 35.43 0S24.27 2.03 24.01 4.57H24v31.39c1.25-2.7 5.12-4.78 11.43-4.78s10.19 2.08 11.43 4.78V4.57z"/><path fill="#006d68" d="M23.99 4.57C23.73 2.03 18.72 0 12.57 0S1.41 2.03 1.15 4.57v31.39c1.25-2.7 5.12-4.78 11.43-4.78s10.19 2.08 11.43 4.78V4.57z"/><path fill="#fff" d="M43.79 15.4c-1.98-1.24-4.87-1.9-8.36-1.9-3.29 0-6.07.59-8.04 1.71l-.99-1.74c2.27-1.29 5.39-1.97 9.02-1.97 3.87 0 7.13.76 9.42 2.2l-1.06 1.69zm0 7.83c-1.98-1.24-4.87-1.9-8.36-1.9-3.29 0-6.07.59-8.04 1.71l-.99-1.74c2.27-1.29 5.39-1.97 9.02-1.97 3.87 0 7.13.76 9.42 2.2l-1.06 1.69zM21.31 15.4c-1.98-1.24-4.87-1.9-8.36-1.9-3.29 0-6.07.59-8.04 1.71l-.99-1.74c2.27-1.29 5.39-1.97 9.02-1.97 3.87 0 7.13.76 9.42 2.2l-1.06 1.69zm0 7.83c-1.98-1.24-4.87-1.9-8.36-1.9-3.29 0-6.07.59-8.04 1.71l-.99-1.74c2.27-1.29 5.39-1.97 9.02-1.97 3.87 0 7.13.76 9.42 2.2l-1.06 1.69z"/><path fill="#a5c352" d="M28.96 8.71h-9.83V39.9h9.83z"/><path fill="#fff" d="M24.44 8.99h-.79V39.9h.79z"/><path fill="#ebf2d4" d="M28.96 39.9h-9.83l4.92 7.86z"/><path fill="#006d68" d="M26.16 44.39h-4.22l2.11 3.37z"/></svg>

<svg width="48" height="48" viewBox="0 0 48 48" fill="none" xmlns="http://www.w3.org/2000/svg">
<path d="M46.85 4.57C46.59 2.03 41.58 0 35.43 0C29.28 0 24.27 2.03 24.01 4.57H24V35.96C25.25 33.26 29.12 31.18 35.43 31.18C41.74 31.18 45.62 33.26 46.86 35.96V4.57H46.85Z" fill="#006D68"/>
<path d="M23.99 4.57C23.73 2.03 18.72 0 12.57 0C6.42002 0 1.41002 2.03 1.15002 4.57V35.96C2.40002 33.26 6.27002 31.18 12.58 31.18C18.89 31.18 22.77 33.26 24.01 35.96V4.57H24H23.99Z" fill="#006D68"/>
<path d="M43.79 15.4C41.81 14.16 38.92 13.5 35.43 13.5C32.14 13.5 29.36 14.09 27.39 15.21L26.4 13.47C28.67 12.18 31.79 11.5 35.42 11.5C39.29 11.5 42.55 12.26 44.84 13.7L43.78 15.39L43.79 15.4Z" fill="white"/>
<path d="M43.79 23.23C41.81 21.99 38.92 21.33 35.43 21.33C32.14 21.33 29.36 21.92 27.39 23.04L26.4 21.3C28.67 20.01 31.79 19.33 35.42 19.33C39.29 19.33 42.55 20.09 44.84 21.53L43.78 23.22L43.79 23.23Z" fill="white"/>
<path d="M21.31 15.4C19.33 14.16 16.44 13.5 12.95 13.5C9.66004 13.5 6.88004 14.09 4.91004 15.21L3.92004 13.47C6.19004 12.18 9.31004 11.5 12.94 11.5C16.81 11.5 20.07 12.26 22.36 13.7L21.3 15.39L21.31 15.4Z" fill="white"/>
<path d="M21.31 23.23C19.33 21.99 16.44 21.33 12.95 21.33C9.66004 21.33 6.88004 21.92 4.91004 23.04L3.92004 21.3C6.19004 20.01 9.31004 19.33 12.94 19.33C16.81 19.33 20.07 20.09 22.36 21.53L21.3 23.22L21.31 23.23Z" fill="white"/>
<path d="M28.96 8.70996H19.13V39.9H28.96V8.70996Z" fill="#A5C352"/>
<path d="M24.44 8.98999H23.65V39.9H24.44V8.98999Z" fill="white"/>
<path d="M28.96 39.9H19.13L24.05 47.76L28.96 39.9Z" fill="#EBF2D4"/>
<path d="M26.16 44.39H21.94L24.05 47.76L26.16 44.39Z" fill="#006D68"/>
</svg>
